src/assets/svg/partners-1.svg

<svg width="124" height="33" viewBox="0 0 124 33" fill="none" xmlns="http://www.w3.org/2000/svg">
<g clip-path="url(#clip0_2_716)">
<path fill-rule="evenodd" clip-rule="evenodd" d="M17.8115 2.21949C18.1481 2.11139 18.5141 2.14707 18.8238 2.3182C19.5012 2.69259 20.0166 3.34247 20.4 3.99274C20.7989 4.6692 21.1333 5.48001 21.3934 6.34137C21.9115 8.05681 22.1802 10.1242 21.9905 12.0113C21.9189 12.7237 21.2869 13.2427 20.5789 13.1707C19.8708 13.0986 19.3549 12.4628 19.4266 11.7505C19.5768 10.2554 19.3624 8.53475 18.9277 7.09513C18.8076 6.69774 18.6743 6.3335 18.5336 6.01029C18.1129 7.09177 17.6801 8.28346 17.4871 8.92978C17.2823 9.61546 16.5638 10.0043 15.8823 9.79824C15.2007 9.5922 14.8143 8.86933 15.0191 8.18366C15.3945 6.92637 16.5278 3.96267 17.0435 2.89001C17.1973 2.57001 17.475 2.32759 17.8115 2.21949Z" fill="#969FA4"/>
<path fill-rule="evenodd" clip-rule="evenodd" d="M13.743 8.14856C13.9994 7.32905 14.8675 6.87376 15.6821 7.13167C16.4863 7.3863 17.2718 7.72743 18.0357 8.12321L18.0402 8.12562C21.6088 9.98972 24.1965 13.1361 24.9025 16.382C24.9131 16.4226 24.929 16.4572 24.9453 16.4824C24.9608 16.5065 24.9719 16.5154 24.9721 16.5155L24.9814 16.5221L27.6136 18.4249L27.6174 18.4277C28.5542 19.1093 28.7954 20.225 28.7499 21.0293C28.7046 21.8314 28.3379 22.9261 27.3046 23.4867L27.2976 23.4905C25.9504 24.2124 24.3235 24.4362 21.8402 23.9933C21.8289 23.9913 21.8176 23.9892 21.8064 23.987C21.7482 23.9752 21.687 23.9657 21.5814 23.9494L21.5734 23.9481C21.4909 23.9354 21.3709 23.9167 21.2437 23.8901C19.3352 23.5857 18.065 23.6196 17.28 23.8322C16.5798 24.0218 16.3993 24.3006 16.3152 24.5752C15.7289 26.5241 16.2651 27.6689 16.993 29.2232C17.109 29.4709 17.2299 29.7291 17.3519 30.0026C17.7016 30.7864 17.3535 31.707 16.5745 32.0588C15.7954 32.4106 14.8803 32.0604 14.5306 31.2767C14.4421 31.078 14.341 30.8678 14.234 30.6451C13.4712 29.0578 12.4031 26.8353 13.3564 23.6703L13.3578 23.6657C13.8165 22.1596 14.973 21.2349 16.4763 20.8278C17.8912 20.4447 19.6834 20.4877 21.7719 20.8243C21.8025 20.8293 21.8329 20.835 21.8631 20.8418C21.8967 20.8494 21.9442 20.8576 22.0465 20.8734C22.054 20.8746 22.0619 20.8759 22.0702 20.8771C22.153 20.8899 22.2718 20.9082 22.3946 20.9324C24.2161 21.2554 25.0992 21.084 25.6523 20.8383L23.181 19.0518C22.5001 18.5652 22.0682 17.8393 21.8917 17.0928C21.8892 17.0824 21.8869 17.0719 21.8846 17.0615C21.4183 14.8909 19.5498 12.4206 16.6175 10.888C15.9757 10.5557 15.3554 10.2899 14.7538 10.0995C13.9392 9.84154 13.4867 8.96809 13.743 8.14856Z" fill="#969FA4"/>
<path fill-rule="evenodd" clip-rule="evenodd" d="M10.0909 4.75535C10.057 5.2168 10.0212 5.66704 9.98712 6.08771C9.97488 6.23844 9.96304 6.38386 9.9516 6.52364C9.86952 7.53006 9.81136 8.24347 9.81136 8.53451C9.81136 9.1174 9.51376 9.78698 8.8368 10.128C8.07952 10.5094 7.03395 11.0967 6.10057 11.7916C6.08781 11.8011 6.0751 11.8106 6.06245 11.82C6.32485 11.8915 6.53111 11.9665 6.66582 12.02C7.34806 12.278 7.65759 12.8958 7.70276 13.3963C7.74426 13.8561 7.59222 14.3491 7.22931 14.7147C7.18101 14.7634 7.12955 14.8088 7.07528 14.8506C6.80414 15.0594 5.85283 15.8381 5.00755 17.0582C4.57144 17.6876 4.17833 18.4121 3.91405 19.221C5.15943 19.0113 6.44671 20.228 5.86119 21.6475C5.37473 22.9277 4.08827 26.7704 4.38185 30.7261C4.44544 31.5829 3.80664 32.3293 2.95506 32.3933C2.10347 32.4573 1.36158 31.8146 1.29799 30.9578C1.09224 28.1854 1.53694 25.5147 2.04308 23.5115C1.84708 23.4895 1.65466 23.4346 1.47438 23.3474C0.942776 23.0903 0.513097 22.5387 0.490867 21.8309C0.35396 19.0937 1.37716 16.8571 2.47066 15.2789C2.5432 15.1742 2.6163 15.0721 2.68967 14.9724C2.32857 14.9035 2.00514 14.7229 1.76595 14.4819C1.29689 14.0094 1.08955 13.2503 1.40158 12.5302C1.97365 11.1952 3.18477 10.0919 4.26105 9.29061C5.107 8.6608 6.00302 8.12153 6.75692 7.71061C6.78496 7.29852 6.8255 6.80426 6.86801 6.28596C6.88022 6.13704 6.8926 5.98614 6.90489 5.83464C7.00026 4.65906 7.1025 3.32523 7.1415 2.17434C7.15207 1.78896 7.30006 1.40432 7.58582 1.10537C7.8451 0.834122 8.132 0.722787 8.28744 0.675792C8.45128 0.626283 8.58976 0.612513 8.6616 0.607344C8.73312 0.602195 8.7948 0.602391 8.80624 0.602427L8.80768 0.602432C8.97808 0.602432 9.14728 0.630764 9.30848 0.686284C10.8398 1.21371 12.1449 2.31768 13.2689 3.54166C14.4028 4.77648 15.4709 6.26798 16.4839 7.72299C16.9738 8.42666 16.804 9.39678 16.1046 9.88968C15.4051 10.3826 14.441 10.2117 13.951 9.50801C12.9346 8.04806 11.9733 6.7157 10.9974 5.65299C10.6855 5.31333 10.3837 5.01434 10.0909 4.75535ZM5.53103 14.9141C5.56169 14.9267 5.59322 14.9384 5.62561 14.9494C5.59686 14.9397 5.56838 14.9292 5.54025 14.9178C5.53723 14.9166 5.53416 14.9154 5.53103 14.9141Z" fill="#969FA4"/>
<path d="M44.5748 12.0365C44.0322 12.6033 43.1281 12.6236 42.5454 12.1174C42.2238 11.8138 41.7818 11.6114 41.3196 11.6114C40.335 11.6114 39.5314 12.4413 39.5314 13.4737V16.4292H41.7818C42.5654 16.4292 43.2285 17.0769 43.2285 17.8664C43.2285 18.6761 42.5654 19.3238 41.7818 19.3238H39.5314V25.3764C39.5314 26.1659 38.8682 26.8339 38.0645 26.8339C37.2809 26.8339 36.6178 26.1659 36.6178 25.3764V25.336C36.6178 23.4331 36.6178 21.5303 36.6178 19.6477V13.4535C36.6178 10.8422 38.7477 8.71667 41.3196 8.71667C42.5051 8.71667 43.6304 9.16201 44.5145 9.97172C45.0771 10.5385 45.0972 11.4495 44.5748 12.0365Z" fill="#969FA4"/>
<path d="M49.8588 26.854C46.6037 26.854 43.9313 24.182 43.9313 20.8825C43.9313 17.6031 46.6037 14.9108 49.8588 14.9108C53.1139 14.9108 55.7864 17.6031 55.8065 20.9027C55.7864 24.2023 53.1139 26.854 49.8588 26.854ZM49.8588 17.8461C48.191 17.8461 46.8247 19.2023 46.8247 20.9027C46.8247 22.5828 48.171 23.9593 49.8588 23.9593C51.5266 23.9593 52.893 22.603 52.893 20.9027C52.8728 19.2023 51.5266 17.8461 49.8588 17.8461Z" fill="#969FA4"/>
<path d="M62.8998 26.8339C61.3325 26.8339 59.9058 26.2469 58.7806 25.174C57.6554 24.0607 57.0124 22.583 56.9521 20.9838C56.932 19.4049 57.4946 17.8867 58.6198 16.7531C59.7049 15.6195 61.1717 14.9717 62.7591 14.911C64.3465 14.8907 65.8334 15.4778 66.9586 16.5911C67.5212 17.1174 67.5414 18.0486 66.9988 18.5952C66.4562 19.162 65.5521 19.1822 64.9894 18.6357C64.4067 18.0689 63.6231 17.745 62.7993 17.745C61.9754 17.745 61.2119 18.1094 60.6292 18.6964C60.0866 19.2834 59.745 20.0729 59.7853 20.9029C59.7853 21.7126 60.147 22.5223 60.7297 23.0688C61.3123 23.6559 62.096 23.9798 62.8998 23.9595C63.6834 23.9595 64.4067 23.6559 64.9694 23.1296C65.5119 22.583 66.4362 22.6235 66.9586 23.2105C67.5011 23.7773 67.461 24.6882 66.8782 25.2348C65.8133 26.2267 64.4268 26.8137 62.96 26.8339H62.8998Z" fill="#969FA4"/>
<path d="M74.4531 26.9756C71.3788 26.9756 68.847 24.2834 68.847 21.004V16.4494C68.847 15.66 69.4298 15.0122 70.1732 15.0122C70.9368 15.0122 71.6602 15.66 71.6602 16.4494V21.004C71.6602 22.7246 73.0868 24.1011 74.4531 24.1011C76.0606 24.1011 77.2662 22.7246 77.2662 21.004V16.6518C77.2662 15.8421 78.09 15.2146 78.733 15.2146C79.4564 15.2146 80.0792 15.8421 80.0792 16.6518V21.004C80.0792 24.2834 77.5676 26.9756 74.4531 26.9756Z" fill="#969FA4"/>
<path d="M85.9872 26.9554C84.48 26.9554 82.9528 26.3278 82.1896 25.5991C81.6264 25.0727 81.5664 24.1619 82.1088 23.5951C82.6312 23.008 83.5352 22.9675 84.0984 23.4938C84.52 23.8987 86.1072 24.4453 87.012 23.8582C87.2528 23.7165 87.3936 23.4533 87.3936 23.1902C87.3936 22.8663 87.112 22.6234 86.8712 22.5222C86.6504 22.4007 86.288 22.4007 85.8464 22.4007C85.284 22.4007 84.6408 22.3805 83.9776 22.1376C82.752 21.7327 81.7472 20.4574 81.6672 19.2024C81.5464 17.7044 82.1896 16.7732 82.732 16.2469C83.9176 15.1538 85.6456 14.9919 86.8912 15.1943C87.8352 15.3563 88.5392 15.7004 89.1416 16.2469C89.704 16.7732 89.7648 17.6842 89.2424 18.251C88.9408 18.5749 88.4784 18.757 88.0368 18.6963C87.8152 18.6761 87.6144 18.5951 87.4136 18.4736C87.092 18.2307 86.8512 18.0688 86.4288 17.9878C85.7256 17.8663 84.3992 17.9068 84.5 18.9392C84.52 19.0607 84.7408 19.3643 84.9224 19.4453C85.1632 19.5262 85.5048 19.5262 85.8864 19.5262C86.5096 19.5465 87.2728 19.5465 88.0568 19.9109C89.3624 20.4979 90.2064 21.7934 90.2064 23.1699C90.2064 24.3845 89.584 25.5181 88.5792 26.2266C87.7752 26.7731 86.8912 26.9554 85.9872 26.9554Z" fill="#969FA4"/>
<path d="M99.8104 12.0365C99.268 12.6033 98.364 12.6235 97.7816 12.1174C97.46 11.8138 97.0176 11.6113 96.5552 11.6113C95.5712 11.6113 94.7672 12.4413 94.7672 13.4737V16.4291H97.0176C97.8016 16.4291 98.4648 17.0769 98.4648 17.8664C98.4648 18.6761 97.8016 19.3238 97.0176 19.3238H94.7672V25.3764C94.7672 26.1659 94.104 26.8338 93.3008 26.8338C92.5168 26.8338 91.8536 26.1659 91.8536 25.3764V25.3359C91.8536 23.4331 91.8536 21.5303 91.8536 19.6477V13.4535C91.8536 10.8421 93.984 8.71667 96.5552 8.71667C97.7408 8.71667 98.8664 9.16201 99.7504 9.97172C100.313 10.5385 100.333 11.4494 99.8104 12.0365Z" fill="#969FA4"/>
<path d="M105.076 26.854C101.821 26.854 99.1488 24.182 99.1488 20.8825C99.1488 17.6031 101.821 14.9108 105.076 14.9108C108.331 14.9108 111.003 17.6031 111.024 20.9027C111.003 24.2023 108.331 26.854 105.076 26.854ZM105.076 17.8461C103.408 17.8461 102.042 19.2023 102.042 20.9027C102.042 22.5828 103.388 23.9593 105.076 23.9593C106.764 23.9593 108.11 22.603 108.11 20.9027C108.11 19.2023 106.764 17.8461 105.076 17.8461Z" fill="#969FA4"/>
<path d="M122.798 24.4857C123.321 25.0322 123.301 25.9229 122.758 26.4695C122.497 26.7326 122.135 26.854 121.794 26.854C121.432 26.854 121.09 26.7124 120.81 26.429L117.494 22.9674L114.238 26.3682C113.978 26.6516 113.616 26.7933 113.254 26.7933C112.933 26.7933 112.571 26.6719 112.29 26.4087C111.747 25.8622 111.727 24.9715 112.27 24.4249L115.605 20.9432L112.25 17.4412C111.727 16.8744 111.727 15.9838 112.29 15.4574C112.832 14.9109 113.716 14.9311 114.258 15.4776L117.514 18.8987L120.85 15.417C121.372 14.8704 122.236 14.8502 122.818 15.3967C123.361 15.923 123.382 16.7935 122.838 17.3805L119.463 20.923L122.798 24.4857Z" fill="#969FA4"/>
</g>
<defs>
<clipPath id="clip0_2_716">
<rect width="124" height="33" fill="white"/>
</clipPath>
</defs>
</svg>

<svg xmlns="http://www.w3.org/2000/svg" width="124" height="33" fill="none">
  <g fill="#969FA4" clip-path="url(#a)">
    <path fill-rule="evenodd" d="M17.811 2.22a1.282 1.282 0 0 1 1.013.098c.677.375 1.193 1.024 1.576 1.675.399.676.733 1.487.993 2.348.518 1.716.787 3.783.598 5.67a1.29 1.29 0 0 1-1.412 1.16 1.294 1.294 0 0 1-1.152-1.42c.15-1.496-.065-3.216-.5-4.656a9.928 9.928 0 0 0-.393-1.085c-.421 1.082-.854 2.273-1.047 2.92a1.287 1.287 0 0 1-1.605.868 1.298 1.298 0 0 1-.863-1.614c.376-1.258 1.509-4.221 2.025-5.294a1.29 1.29 0 0 1 .767-.67Z" clip-rule="evenodd"/>
    <path fill-rule="evenodd" d="M13.743 8.149a1.545 1.545 0 0 1 1.94-1.017 14.91 14.91 0 0 1 2.353.991l.004.003c3.569 1.864 6.157 5.01 6.863 8.256.01.04.026.075.042.1a.143.143 0 0 0 .027.034l.01.006 2.632 1.903.003.003c.937.681 1.178 1.797 1.133 2.601-.045.802-.412 1.897-1.445 2.458l-.007.004c-1.348.721-2.974.945-5.458.502a5.016 5.016 0 0 0-.259-.044h-.008a6.216 6.216 0 0 1-.33-.059c-1.908-.304-3.178-.27-3.963-.058-.7.19-.88.469-.965.743-.586 1.95-.05 3.094.678 4.648.116.248.237.506.359.78a1.56 1.56 0 0 1-.777 2.056 1.543 1.543 0 0 1-2.044-.782c-.089-.199-.19-.41-.297-.632-.763-1.587-1.83-3.81-.878-6.975l.002-.004c.458-1.506 1.615-2.431 3.118-2.838 1.415-.383 3.207-.34 5.296-.004l.091.018c.034.007.081.016.184.031l.023.004c.083.013.202.031.325.055 1.821.323 2.704.152 3.257-.094l-2.471-1.786c-.68-.487-1.113-1.213-1.29-1.96l-.006-.03c-.467-2.171-2.335-4.641-5.268-6.174a11.875 11.875 0 0 0-1.863-.788 1.558 1.558 0 0 1-1.011-1.951Z" clip-rule="evenodd"/>
    <path fill-rule="evenodd" d="M10.09 4.755a177.812 177.812 0 0 1-.138 1.769c-.082 1.006-.14 1.72-.14 2.01a1.78 1.78 0 0 1-.975 1.594c-.757.381-1.803.969-2.736 1.664l-.039.028c.263.072.47.146.604.2.682.258.992.876 1.037 1.376a1.662 1.662 0 0 1-.628 1.455 10.38 10.38 0 0 0-2.067 2.207 8.393 8.393 0 0 0-1.094 2.163c1.245-.21 2.533 1.007 1.947 2.427-.486 1.28-1.773 5.122-1.48 9.078a1.553 1.553 0 0 1-1.426 1.667 1.55 1.55 0 0 1-1.657-1.435c-.206-2.773.239-5.443.745-7.446a1.743 1.743 0 0 1-1.552-1.68c-.137-2.738.886-4.975 1.98-6.553.072-.105.145-.207.219-.307a1.766 1.766 0 0 1-1.288-2.442c.572-1.335 1.783-2.438 2.859-3.24a21.521 21.521 0 0 1 2.496-1.58c.028-.411.069-.906.111-1.424l.037-.451c.095-1.176.197-2.51.236-3.66A1.608 1.608 0 0 1 8.662.606c.072-.005.134-.005.145-.005h.002c.17 0 .34.029.5.084 1.532.528 2.837 1.632 3.96 2.856 1.135 1.234 2.203 2.726 3.216 4.181.49.704.32 1.674-.38 2.167a1.54 1.54 0 0 1-2.153-.382c-1.016-1.46-1.978-2.792-2.954-3.855a12.35 12.35 0 0 0-.906-.898Zm-4.559 10.16a1.615 1.615 0 0 0 .01.003l-.01-.004Z" clip-rule="evenodd"/>
    <path d="M44.575 12.037c-.543.566-1.447.587-2.03.08a1.816 1.816 0 0 0-1.225-.506c-.985 0-1.789.83-1.789 1.863v2.955h2.25c.784 0 1.447.648 1.447 1.437 0 .81-.663 1.458-1.446 1.458h-2.25v6.052c0 .79-.664 1.458-1.467 1.458-.784 0-1.447-.668-1.447-1.458V13.454c0-2.612 2.13-4.737 4.702-4.737 1.185 0 2.31.445 3.194 1.255.563.567.583 1.478.06 2.065Zm5.284 14.817c-3.255 0-5.928-2.672-5.928-5.971 0-3.28 2.673-5.972 5.928-5.972s5.927 2.692 5.947 5.992c-.02 3.3-2.692 5.951-5.947 5.951Zm0-9.008a3.043 3.043 0 0 0-3.034 3.057c0 1.68 1.346 3.056 3.034 3.056a3.043 3.043 0 0 0 3.034-3.056c-.02-1.7-1.366-3.057-3.034-3.057ZM62.9 26.834a5.883 5.883 0 0 1-4.12-1.66 6.172 6.172 0 0 1-1.828-4.19c-.02-1.58.543-3.097 1.668-4.23a5.999 5.999 0 0 1 4.14-1.843 5.8 5.8 0 0 1 4.199 1.68c.562.526.582 1.458.04 2.004a1.418 1.418 0 0 1-2.01.04 3.14 3.14 0 0 0-2.19-.89c-.824 0-1.587.364-2.17.951-.542.587-.884 1.377-.844 2.207 0 .81.362 1.62.945 2.166a2.96 2.96 0 0 0 2.17.89 3.01 3.01 0 0 0 2.07-.83c.542-.546 1.466-.506 1.989.081.542.567.502 1.478-.08 2.025-1.066.992-2.452 1.579-3.919 1.599h-.06Zm11.553.142c-3.074 0-5.606-2.693-5.606-5.972v-4.555c0-.789.583-1.437 1.326-1.437.764 0 1.487.648 1.487 1.437v4.555c0 1.72 1.427 3.097 2.793 3.097 1.608 0 2.813-1.376 2.813-3.097v-4.352c0-.81.824-1.437 1.467-1.437.723 0 1.346.627 1.346 1.437v4.352c0 3.28-2.511 5.972-5.626 5.972Zm11.534-.021c-1.507 0-3.034-.627-3.797-1.356-.564-.526-.624-1.437-.081-2.004a1.396 1.396 0 0 1 1.99-.101c.421.405 2.008.951 2.913.364a.783.783 0 0 0 .382-.668c0-.324-.282-.567-.523-.668-.22-.121-.583-.121-1.025-.121-.562 0-1.205-.02-1.868-.263-1.226-.405-2.23-1.68-2.31-2.936-.122-1.498.522-2.429 1.064-2.955 1.186-1.093 2.914-1.255 4.16-1.053.943.162 1.647.506 2.25 1.053.562.526.623 1.437.1 2.004a1.422 1.422 0 0 1-1.205.445 1.445 1.445 0 0 1-.623-.222c-.322-.243-.563-.405-.985-.486-.703-.122-2.03-.081-1.929.951.02.122.24.425.422.506.241.081.583.081.964.081.624.02 1.387.02 2.17.385 1.306.587 2.15 1.882 2.15 3.259 0 1.214-.622 2.348-1.627 3.057-.804.546-1.688.728-2.592.728ZM99.81 12.037c-.542.566-1.446.586-2.028.08a1.817 1.817 0 0 0-1.227-.506c-.984 0-1.788.83-1.788 1.863v2.955h2.25c.785 0 1.448.648 1.448 1.437a1.46 1.46 0 0 1-1.447 1.458h-2.25v6.052c0 .79-.664 1.458-1.467 1.458-.784 0-1.447-.668-1.447-1.458V13.454c0-2.612 2.13-4.737 4.701-4.737 1.186 0 2.311.445 3.195 1.255.563.567.583 1.477.06 2.065Zm5.266 14.817c-3.255 0-5.927-2.672-5.927-5.971 0-3.28 2.672-5.972 5.927-5.972 3.255 0 5.927 2.692 5.948 5.992-.021 3.3-2.693 5.951-5.948 5.951Zm0-9.008a3.042 3.042 0 0 0-3.034 3.057c0 1.68 1.346 3.056 3.034 3.056a3.03 3.03 0 0 0 3.034-3.056 3.03 3.03 0 0 0-3.034-3.057Zm17.722 6.64c.523.546.503 1.437-.04 1.983a1.361 1.361 0 0 1-.964.385c-.362 0-.704-.142-.984-.425l-3.316-3.462-3.256 3.401a1.33 1.33 0 0 1-.984.425c-.321 0-.683-.121-.964-.384-.543-.547-.563-1.438-.02-1.984l3.335-3.482-3.355-3.502c-.523-.567-.523-1.457.04-1.984.542-.546 1.426-.526 1.968.02l3.256 3.422 3.336-3.482c.522-.547 1.386-.567 1.968-.02.543.526.564 1.397.02 1.984l-3.375 3.542 3.335 3.563Z"/>
  </g>
  <defs>
    <clipPath id="a">
      <path fill="#fff" d="M0 0h124v33H0z"/>
    </clipPath>
  </defs>
</svg>
